X: 1159
T: Dont Leave Me Alone.
B:O'Neill's Music of Ireland
N:O'Neill's - 1159
Z:Transcribed by Stephen Foy (shf@access.digex.net)
Z:abc 1.6
M:9/8
R:slipjig
K:G
g2 f efg dcB|e2 A ABG FED|g2 f efg dcB|c2 B AGF G2:|
|:B2 c dcB dcB|e2 A ABG FED|B2 c dcB dcB|c2 B AGF G2:|


